!!!OTL: 508. Schaefers Liebeslied.
!!!ARE: Europa, Mitteleuropa, Deutschland, Hessen, Darmstadt, Messel
!!!SCT: E0508A
!!!TXL: @@DE
!!!YEM: Copyright 1995, estate of Helmut Schaffrath.
**kern	**text
*ICvox	*
*M3/4	*
*k[b-]	*
*F:	*
!LO:TX:a:t=Aus Meſſel bei Darmſtadt, 1844.	!
{4c	Der
=1	=1
4f	Schä-
4c	-fer
4f	trägt
=2	=2
4a	Sorgen
4f}	.
{4a	des
=3	=3
4cc	Mor-
8ddL	-gens
8ccJ	.
8b-L	ſehr
8aJ	.
=4	=4
(4a	fruh,
4g)}	.
{4b-	ſeine
=5	=5
4b-	Schäf-
4dd	-lein
8ffL	ʒu
8ddJ	.
=6	=6
4cc	wei-
4a}	-den,
{8aL	hat
8ccJ	.
=7	=7
8ccL	nie-
8b-J	.
4b-	-mals
(8b-	kei-
8dd)	-ne
=8	=8
2cc}	Ruh.
{8aL	hat
8ccJ	.
=9	=9
8ccL	nie-
8b-J	.
4g	-mals
4g	keine
=10	=10
2f}	Ruh.
{4b-	ſeine
=11	=11
4b-	Schäf-
4dd	-lein
8ffL	ʒu
8ddJ	.
=12	=12
4cc	wei-
4a}	-den,
{8aL	hat
8ccJ	.
=13	=13
8ccL	nie-
8b-J	.
4b-	-mals
(8b-	kei-
8dd)	-ne
=14	=14
2cc}	Ruh.
{8aL	hat
8ccJ	.
=15	=15
8ccL	nie-
8b-J	.
4g	-mals
4g	keine
=16	=16
2f}	Ruh.
==	==
!!!AGN: Liebes - Lied
!!!ONB: ESAC (Essen Associative Code) Database: ERK1
!!!AMT: simple triple
!!!AIN: vox
!!!EED: Helmut Schaffrath
!!!EEV: 1.0
!!!GTL: Liebeslieder [Neuere (aus dem 18. bis 19. Jahrh.) - Liebeslust]
!!!URL-scan: https://rosdok.uni-rostock.de/mcrviewer/recordIdentifier/rosdok_ppn745177662/iview2/phys_0330.iview2?x=-167.80707726282276&y=1281.6193702924065&scale=0.5707458166514069&rotation=0&layout=singlePageLayout
!!!ENC: Anna Maria Matuszewska
!!!EEV: 2024/10/12
*-	*-
